Origami/64x64/apps/qbittorrent.svg

<svg width="64" height="64" version="1" xmlns="http://www.w3.org/2000/svg">
 <circle cx="32" cy="33" r="28" style="opacity:.2"/>
 <circle cx="32" cy="32" r="28" style="fill:#2f67ba"/>
 <path d="m19 23.00088a11 10.999698 0 0 0 -11 10.999697 11 10.999698 0 0 0 11 10.999698 11 10.999698 0 0 0 5 -1.213967v11.213692h6v-20.999423-10.999697h-6v1.203087a11 10.999698 0 0 0 -5 -1.203967zm0 5.999835a5 4.9998625 0 0 1 5 4.999862 5 4.9998625 0 0 1 -5 4.999863 5 4.9998625 0 0 1 -5 -4.999863 5 4.9998625 0 0 1 5 -4.999862z" style="opacity:.2"/>
 <path d="m19 22a11 11 0 0 0 -11 11 11 11 0 0 0 11 11 11 11 0 0 0 5 -1.214v11.214h6v-21-11h-6v1.204a11 11 0 0 0 -5 -1.204zm0 6a5 5 0 0 1 5 5 5 5 0 0 1 -5 5 5 5 0 0 1 -5 -5 5 5 0 0 1 5 -5z" style="fill:#7fc1de"/>
 <path d="m45 44.99912a11 10.999698 0 0 0 11 -10.999697 11 10.999698 0 0 0 -11 -10.999698 11 10.999698 0 0 0 -5 1.213967v-11.213692h-6v20.999423 10.999697h6v-1.203087a11 10.999698 0 0 0 5 1.203967zm0-5.999835a5 4.9998625 0 0 1 -5 -4.999862 5 4.9998625 0 0 1 5 -4.999863 5 4.9998625 0 0 1 5 4.999863 5 4.9998625 0 0 1 -5 4.999862z" style="opacity:.2"/>
 <path d="m45 43.99912a11 10.999698 0 0 0 11 -10.999697 11 10.999698 0 0 0 -11 -10.999698 11 10.999698 0 0 0 -5 1.213967v-11.213692h-6v20.999423 10.999697h6v-1.203087a11 10.999698 0 0 0 5 1.203967zm0-5.999835a5 4.9998625 0 0 1 -5 -4.999862 5 4.9998625 0 0 1 5 -4.999863 5 4.9998625 0 0 1 5 4.999863 5 4.9998625 0 0 1 -5 4.999862z" style="fill:#ffffff"/>
 <path d="M 32,4 A 28.0005,28.007677 0 0 0 4,32.007677 28.0005,28.007677 0 0 0 4.0175781,32.5 28.0005,28.007677 0 0 1 32,5.0002742 28.0005,28.007677 0 0 1 59.974609,32.5 28.0005,28.007677 0 0 0 60,32.007677 28.0005,28.007677 0 0 0 32,4 Z" style="fill:#ffffff;opacity:.2"/>
</svg>

<svg xmlns="http://www.w3.org/2000/svg" width="64" height="64" version="1">
 <circle style="opacity:0.2" cx="32" cy="33" r="28"/>
 <circle style="fill:#2f67ba" cx="32" cy="32" r="28"/>
 <path style="opacity:0.2" d="M 19,23.00088 A 11,10.999698 0 0 0 8,34.000577 11,10.999698 0 0 0 19,45.000275 11,10.999698 0 0 0 24,43.786308 L 24,55 l 6,0 0,-20.999423 0,-10.999697 -6,0 0,1.203087 A 11,10.999698 0 0 0 19,23 Z m 0,5.999835 a 5,4.9998625 0 0 1 5,4.999862 5,4.9998625 0 0 1 -5,4.999863 5,4.9998625 0 0 1 -5,-4.999863 5,4.9998625 0 0 1 5,-4.999862 z"/>
 <path style="fill:#7fc1de" d="M 19,22 A 11,11 0 0 0 8,33 11,11 0 0 0 19,44 11,11 0 0 0 24,42.786 L 24,54 l 6,0 0,-21 0,-11 -6,0 0,1.204 A 11,11 0 0 0 19,22 Z m 0,6 a 5,5 0 0 1 5,5 5,5 0 0 1 -5,5 5,5 0 0 1 -5,-5 5,5 0 0 1 5,-5 z"/>
 <path style="opacity:0.2" d="M 45,44.99912 A 11,10.999698 0 0 0 56,33.999423 11,10.999698 0 0 0 45,22.999725 11,10.999698 0 0 0 40,24.213692 L 40,13 l -6,0 0,20.999423 0,10.999697 6,0 0,-1.203087 A 11,10.999698 0 0 0 45,45 Z m 0,-5.999835 a 5,4.9998625 0 0 1 -5,-4.999862 5,4.9998625 0 0 1 5,-4.999863 5,4.9998625 0 0 1 5,4.999863 5,4.9998625 0 0 1 -5,4.999862 z"/>
 <path style="fill:#ffffff" d="M 45,43.99912 A 11,10.999698 0 0 0 56,32.999423 11,10.999698 0 0 0 45,21.999725 11,10.999698 0 0 0 40,23.213692 L 40,12 l -6,0 0,20.999423 0,10.999697 6,0 0,-1.203087 A 11,10.999698 0 0 0 45,44 Z m 0,-5.999835 a 5,4.9998625 0 0 1 -5,-4.999862 5,4.9998625 0 0 1 5,-4.999863 5,4.9998625 0 0 1 5,4.999863 5,4.9998625 0 0 1 -5,4.999862 z"/>
 <path style="opacity:0.2;fill:#ffffff" d="M 32,4 A 28.0005,28.007677 0 0 0 4,32.007677 28.0005,28.007677 0 0 0 4.0175781,32.5 28.0005,28.007677 0 0 1 32,5.0002742 28.0005,28.007677 0 0 1 59.974609,32.5 28.0005,28.007677 0 0 0 60,32.007677 28.0005,28.007677 0 0 0 32,4 Z"/>
</svg>
